!!!SOCIAL_FUNCTION:	potlatch songs
!!!PDT:	1939
!!!OTL: No__21_"The_Rattle_is_my_Tumanos".krn
!!!LANG: Non-Tone
!!!LING_GROUP: Wakashan
!!!REG: Pacific Northwest
**kern
*staff1
=1-
*clefF4
*k[b-e-]
*M2/4
[2d-\
=2
4.d-\]
8r
=3
[2d\
=4
4d\]
8c\L
8B-\J
=5||
*M3/4
2B-\
4r
=6||
*M2/4
[2c\
=7
2c\_
=8
4c\]
8B-\
8r
=9
(2Bn\
=10
2A-\)
=11
4A\
4r
=12||
*M3/4
[2B-\
8B-\L]
16c\L
16B-\JJ
=13||
*M2/4
4B-\
4B-\
=14
4B-\
8G\
8r
=15||
*M3/4
[2B-\
8B-\L]
16B-\L
16B-\JJ
=16||
*M2/4
4B-\
4B-\
=17
4B-\
4r
=18
4B-\
4B-\
=19
4B-\
8.B-\L
16B-\Jk
=20
4B-\
4B-\
=21
4B-\
4r
=22
4B-\
4B-\
=23
4B-\
8.B-\L
16B-\Jk
=24
4B-\
4B-\
=25
4B-\
4r
=26||
*M3/4
[2B-\
8B-\L]
16.c\L
32B-\JJk
=27||
*M2/4
4B-\
4B-\
=28
4B-\
4r
=29
[2B-\
=30
4B-\_
8.B-\L]
16B-\Jk
=31
4B-\
4B-\
=32
2B-\
=33||
2B-\
==
*-
